packages/foundations/assets/icons/functional/images/environment/sun_24_filled.svg

<svg xmlns="http://www.w3.org/2000/svg" width="20" height="20" fill="none"><path fill="#1A1C1F" fill-rule="evenodd" d="M9.678 2.06a.98.98 0 0 0-.627.636c-.039.112-.051.297-.051.807 0 .787.037.938.298 1.199a.985.985 0 0 0 1.404 0C10.963 4.44 11 4.291 11 3.5c0-.752-.033-.904-.251-1.159a1.03 1.03 0 0 0-1.071-.281M4.673 4.134c-.329.149-.509.363-.594.71-.048.192-.048.23.001.419.071.278.17.411.677.911.503.496.633.571.993.573a.974.974 0 0 0 .997-.997c-.002-.365-.074-.488-.606-1.025-.555-.559-.719-.659-1.088-.658a.9.9 0 0 0-.38.067m9.841.031c-.147.073-.314.216-.655.56-.532.537-.604.66-.606 1.025a.974.974 0 0 0 .997.997c.373-.002.517-.091 1.07-.655.484-.493.558-.601.614-.896.06-.316-.109-.745-.365-.928-.327-.232-.72-.271-1.055-.103M9.617 6.019c-.991.135-1.72.47-2.373 1.091-1.787 1.697-1.617 4.596.357 6.086 1.961 1.481 4.815.83 5.943-1.354a3.998 3.998 0 0 0-2.749-5.76c-.24-.05-.981-.09-1.178-.063M2.678 9.06a.99.99 0 0 0-.38 1.642c.262.261.411.298 1.202.298s.94-.037 1.202-.298a.99.99 0 0 0-.261-1.592c-.189-.092-.199-.093-.891-.102-.606-.007-.723 0-.872.052m13 0a.99.99 0 0 0-.38 1.642c.262.261.411.298 1.202.298s.94-.037 1.202-.298a.99.99 0 0 0-.261-1.592c-.189-.092-.199-.093-.891-.102-.606-.007-.723 0-.872.052m-10.14 4.208c-.227.046-.423.195-.91.69-.465.473-.506.536-.578.899-.03.148.063.485.181.656a.996.996 0 0 0 1.263.331c.067-.031.337-.267.599-.524.567-.557.654-.699.655-1.068a1 1 0 0 0-1.21-.984m8.507-.001a.986.986 0 0 0-.792.983c.002.36.077.49.573.993.5.507.633.606.911.677.189.049.227.049.419.001.704-.173 1.016-.952.614-1.532-.16-.231-.938-.969-1.103-1.047a1.1 1.1 0 0 0-.622-.075M9.678 15.06a.98.98 0 0 0-.627.636c-.039.112-.051.297-.051.807 0 .787.037.938.298 1.199a.985.985 0 0 0 1.404 0c.261-.262.298-.411.298-1.202 0-.752-.033-.904-.251-1.159a1.03 1.03 0 0 0-1.071-.281"/></svg>

<svg width="20" height="20" viewBox="0 0 20 20" fill="none" xmlns="http://www.w3.org/2000/svg"><path d="M9.678 2.060 C 9.367 2.171,9.163 2.377,9.051 2.696 C 9.012 2.808,9.000 2.993,9.000 3.503 C 9.000 4.290,9.037 4.441,9.298 4.702 C 9.691 5.094,10.309 5.094,10.702 4.702 C 10.963 4.440,11.000 4.291,11.000 3.500 C 11.000 2.748,10.967 2.596,10.749 2.341 C 10.504 2.055,10.036 1.932,9.678 2.060 M4.673 4.134 C 4.344 4.283,4.164 4.497,4.079 4.844 C 4.031 5.036,4.031 5.074,4.080 5.263 C 4.151 5.541,4.250 5.674,4.757 6.174 C 5.260 6.670,5.390 6.745,5.750 6.747 C 6.316 6.751,6.749 6.317,6.747 5.750 C 6.745 5.385,6.673 5.262,6.141 4.725 C 5.586 4.166,5.422 4.066,5.053 4.067 C 4.891 4.068,4.772 4.089,4.673 4.134 M14.514 4.165 C 14.367 4.238,14.200 4.381,13.859 4.725 C 13.327 5.262,13.255 5.385,13.253 5.750 C 13.251 6.317,13.684 6.751,14.250 6.747 C 14.623 6.745,14.767 6.656,15.320 6.092 C 15.804 5.599,15.878 5.491,15.934 5.196 C 15.994 4.880,15.825 4.451,15.569 4.268 C 15.242 4.036,14.849 3.997,14.514 4.165 M9.617 6.019 C 8.626 6.154,7.897 6.489,7.244 7.110 C 5.457 8.807,5.627 11.706,7.601 13.196 C 9.562 14.677,12.416 14.026,13.544 11.842 C 14.764 9.478,13.406 6.632,10.795 6.082 C 10.555 6.032,9.814 5.992,9.617 6.019 M2.678 9.060 C 1.975 9.308,1.774 10.177,2.298 10.702 C 2.560 10.963,2.709 11.000,3.500 11.000 C 4.291 11.000,4.440 10.963,4.702 10.702 C 5.184 10.219,5.052 9.411,4.441 9.110 C 4.252 9.018,4.242 9.017,3.550 9.008 C 2.944 9.001,2.827 9.008,2.678 9.060 M15.678 9.060 C 14.975 9.308,14.774 10.177,15.298 10.702 C 15.560 10.963,15.709 11.000,16.500 11.000 C 17.291 11.000,17.440 10.963,17.702 10.702 C 18.184 10.219,18.052 9.411,17.441 9.110 C 17.252 9.018,17.242 9.017,16.550 9.008 C 15.944 9.001,15.827 9.008,15.678 9.060 M5.538 13.268 C 5.311 13.314,5.115 13.463,4.628 13.958 C 4.163 14.431,4.122 14.494,4.050 14.857 C 4.020 15.005,4.113 15.342,4.231 15.513 C 4.513 15.923,5.032 16.059,5.494 15.844 C 5.561 15.813,5.831 15.577,6.093 15.320 C 6.660 14.763,6.747 14.621,6.748 14.252 C 6.748 13.610,6.170 13.140,5.538 13.268 M14.045 13.267 C 13.576 13.363,13.250 13.768,13.253 14.250 C 13.255 14.610,13.330 14.740,13.826 15.243 C 14.326 15.750,14.459 15.849,14.737 15.920 C 14.926 15.969,14.964 15.969,15.156 15.921 C 15.860 15.748,16.172 14.969,15.770 14.389 C 15.610 14.158,14.832 13.420,14.667 13.342 C 14.487 13.259,14.235 13.228,14.045 13.267 M9.678 15.060 C 9.367 15.171,9.163 15.377,9.051 15.696 C 9.012 15.808,9.000 15.993,9.000 16.503 C 9.000 17.290,9.037 17.441,9.298 17.702 C 9.691 18.094,10.309 18.094,10.702 17.702 C 10.963 17.440,11.000 17.291,11.000 16.500 C 11.000 15.748,10.967 15.596,10.749 15.341 C 10.504 15.055,10.036 14.932,9.678 15.060 " fill="#1A1C1F" stroke="none" fill-rule="evenodd"></path></svg>
